X: 17294
T: Herr Roloff's Farewell
R: reel
M: 4/4
K: Gmajor
D|B2 c>A d2 B>G|g2 f>e d2 BG|F2 G2 E2 FG|c2 B2 A3D|
B2 c>A d2 B>G|g2 f>e d2 BG|F2 G>E D2 Gc|B2 A2 G3B|
B2 e>f g2 fe|f2 B2 e3A|A2 de f2 ed|e2 A2 d3D|
B2 c>A d2 B>G|g2 c>e d2 BG|F2 G>E D2 Gc|B2 A2 G3|

